!!!COM: Palestrina, Giovanni Perluigi da
!!!OPR: Missa Fratres Ego Enim Accepi
!!!OTL: Kyrie II
**kern	**kern	**kern	**kern	**kern	**kern	**kern	**kern
*Ibass	*Itenor	*Icalto	*Icant	*Ibass	*Itenor	*Icalto	*Icant
!Bassus	!Tenor	!Altus	!Cantus	!Bassus	!Tenor	!Altus	!Cantus
*clefF4	*clefGv2	*clefG2	*clefG2	*clefF4	*clefGv2	*clefG2	*clefG2
*k[b-]	*k[b-]	*k[b-]	*k[b-]	*k[b-]	*k[b-]	*k[b-]	*k[b-]
*G:dor	*G:dor	*G:dor	*G:dor	*G:dor	*G:dor	*G:dor	*G:dor
*M4/2	*M4/2	*M4/2	*M4/2	*M4/2	*M4/2	*M4/2	*M4/2
=1	=1	=1	=1	=1	=1	=1	=1
0r	0r	0r	0r	1.d	1.f#	1.a	1r
.	.	.	.	.	.	.	[1dd
.	.	.	.	2G	2g	2b	.
=2	=2	=2	=2	=2	=2	=2	=2
0r	0r	0r	0r	1G	2.g	1b	2dd]
.	.	.	.	.	.	.	2g
.	.	.	.	.	4f	.	.
.	.	.	.	2.c	4e	2cc	2g
.	.	.	.	.	4d	.	.
.	.	.	.	.	2e	2g	[2cc
.	.	.	.	4B-	.	.	.
=3	=3	=3	=3	=3	=3	=3	=3
0r	0r	0r	0r	4A	1c	1.a	4cc]
.	.	.	.	4G	.	.	4b-
.	.	.	.	4F	.	.	4a
.	.	.	.	4E	.	.	4g
.	.	.	.	1D	1d	.	2f
.	.	.	.	.	.	2b-	[2ff
=4	=4	=4	=4	=4	=4	=4	=4
0r	0r	0r	0r	2.F	2c	[0a	4ff]
.	.	.	.	.	.	.	4ee
.	.	.	.	.	2f	.	1dd
.	.	.	.	4G	.	.	.
.	.	.	.	1A	1e	.	.
.	.	.	.	.	.	.	2cc#
=5	=5	=5	=5	=5	=5	=5	=5
1.d	1.f#	1.a	1r	1D	1d	1a]	1dd
.	.	.	[1dd	1r	1r	1r	1r
2G	2g	2b	.	.	.	.	.
=6	=6	=6	=6	=6	=6	=6	=6
1G	2.g	1b	2dd]	0r	0r	0r	0r
.	.	.	2g	.	.	.	.
.	4f	.	.	.	.	.	.
2.c	4e	2cc	2g	.	.	.	.
.	4d	.	.	.	.	.	.
.	2e	2g	[2cc	.	.	.	.
4B-	.	.	.	.	.	.	.
=7	=7	=7	=7	=7	=7	=7	=7
4A	1c	1.a	4cc]	0r	0r	0r	0r
4G	.	.	4b-	.	.	.	.
4F	.	.	4a	.	.	.	.
4E	.	.	4g	.	.	.	.
1D	1d	.	2f	.	.	.	.
.	.	4f	[2ff	.	.	.	.
.	.	4g	.	.	.	.	.
=8	=8	=8	=8	=8	=8	=8	=8
2.F	2c	4a	4ff]	0r	0r	0r	0r
.	.	4b-	4ee	.	.	.	.
.	2f	2.a	2dd	.	.	.	.
4G	.	.	.	.	.	.	.
2A	2e	.	2cc	.	.	.	.
.	.	4g	.	.	.	.	.
2B-	[2d	[2f	2b-	.	.	.	.
=9	=9	=9	=9	=9	=9	=9	=9
2F	4d]	4f]	2a	0r	0r	0r	0r
.	4c	4e	.	.	.	.	.
2A	1c	2c	2f	.	.	.	.
1G	.	1d	[1g	.	.	.	.
.	2B	.	.	.	.	.	.
=10	=10	=10	=10	=10	=10	=10	=10
1C	1c	1e	1g]	2r	2r	2r	2r
.	.	.	.	1c	1g	1cc	1ee
1r	1r	1r	1r	.	.	.	.
.	.	.	.	2F	2a	2cc	2ff
=11	=11	=11	=11	=11	=11	=11	=11
2r	2r	2r	2r	1F	1a	1cc	1ff
1F	1f	1a	1cc	.	.	.	.
.	.	.	.	2r	2r	2r	2r
2C	2e	2g	2cc	[2c	[2g	[2cc	[2ee
=12	=12	=12	=12	=12	=12	=12	=12
1C	1e	1g	1cc	4c]	4g]	4cc]	4ee]
.	.	.	.	4c	4g	4cc	4ee
.	.	.	.	2c	2e	2g	2cc
2r	2r	2r	2r	2B	2d	2g	2dd
[2c	[2g	[2e	[2cc	2c	2c	2g	2ee
=13	=13	=13	=13	=13	=13	=13	=13
4c]	4g]	4e]	4cc]	1C	1e	1g	1cc
4c	4g	4e	4cc	.	.	.	.
2c	2e	2g	2cc	.	.	.	.
2B	2d	2g	2dd	1r	1r	1r	1r
2c	2e	2g	2cc	.	.	.	.
=14	=14	=14	=14	=14	=14	=14	=14
1F	1f	1a	1cc	2r	2r	2r	2r
.	.	.	.	2.F	2.f	2.a	2.cc
1r	1r	1r	1r	.	.	.	.
.	.	.	.	4F	4f	4a	4cc
.	.	.	.	2F	2f	2a	2cc
=15	=15	=15	=15	=15	=15	=15	=15
0r	0r	0r	0r	2E	2c	2g	2cc
.	.	.	.	2F	2c	2f	2a
.	.	.	.	1C	2c	2.e	1g
.	.	.	.	.	4g	.	.
.	.	.	.	.	4f	4d	.
=16	=16	=16	=16	=16	=16	=16	=16
0r	0r	0r	0r	2r	4e	1c	2.gg
.	.	.	.	.	4d	.	.
.	.	.	.	2.c	2c	.	.
.	.	.	.	.	.	.	4ff
.	.	.	.	.	2g	1cc	4ee
.	.	.	.	4B-	.	.	4dd
.	.	.	.	4A	[2a	.	2cc
.	.	.	.	4G	.	.	.
=17	=17	=17	=17	=17	=17	=17	=17
0r	0r	0r	0r	2F	2a]	2.cc	2ff
.	.	.	.	2c	2g	.	2.ee
.	.	.	.	.	.	4b-	.
.	.	.	.	2d	2f	2a	.
.	.	.	.	.	.	.	4dd
.	.	.	.	2B-	2d	2g	[2dd
=18	=18	=18	=18	=18	=18	=18	=18
1r	1r	1r	1r	1A	1e	1a	2dd]
.	.	.	.	.	.	.	2cc#
2r	2r	2r	2r	[1D	[1d	[1a	[1dd
[2d	[2f	[2a	[2dd	.	.	.	.
=19	=19	=19	=19	=19	=19	=19	=19
4d]	4f]	4a]	4dd]	1D]	1d]	1a]	1dd]
4d	4f	4a	4dd	.	.	.	.
2d	2d	2a	2ff	.	.	.	.
2c#	2e	2a	2ee	1r	1r	1r	1r
2d	2f	2a	[2dd	.	.	.	.
=20	=20	=20	=20	=20	=20	=20	=20
0G	2.g	2.b-	2dd]	2r	2r	2r	2r
.	.	.	4g	2.G	2.d	2.g	2.b-
.	8f	4a	4a	.	.	.	.
.	8e	.	.	.	.	.	.
.	1d	1g	4b-	.	.	.	.
.	.	.	4cc	4G	4d	4g	4b-
.	.	.	2dd	2G	2d	2b-	2g
=21	=21	=21	=21	=21	=21	=21	=21
1r	1r	1r	1r	2F#	2d	2a	2a
.	.	.	.	2G	2d	2g	2b-
2r	2r	2r	2r	[1C	[1e	[1g	[1cc
[2c	[2e	[2g	[2cc	.	.	.	.
=22	=22	=22	=22	=22	=22	=22	=22
4c]	4e]	4g]	4cc]	1C]	1e]	1g]	1cc]
4c	4e	4g	4cc	.	.	.	.
2c	2e	2g	2cc	.	.	.	.
2B	2d	2g	2dd	1r	1r	1r	1r
2c	2e	2g	2cc	.	.	.	.
=23	=23	=23	=23	=23	=23	=23	=23
1F	2f	2cc	1a	0r	0r	0r	0r
.	4c	2.cc	.	.	.	.	.
.	4B-	.	.	.	.	.	.
2r	4A	.	2.cc	.	.	.	.
.	4G	4b-	.	.	.	.	.
[2F	2F	4a	.	.	.	.	.
.	.	4g	4b-	.	.	.	.
=24	=24	=24	=24	=24	=24	=24	=24
4F]	2c	2f	4a	0r	0r	0r	0r
4E	.	.	4g	.	.	.	.
4D	1d	2a	2f	.	.	.	.
4C	.	.	.	.	.	.	.
2BB-	.	2b-	2.ff	.	.	.	.
2F	2c	[2a	.	.	.	.	.
.	.	.	4ee	.	.	.	.
=25	=25	=25	=25	=25	=25	=25	=25
2G	2B-	4a]	2dd	1r	0r	0r	1r
.	.	4g	.	.	.	.	.
2E-	2G	1g	2cc	.	.	.	.
1D	1A	.	1dd	2.d	.	.	2r
.	.	2f#	.	.	.	.	[2dd
.	.	.	.	4c	.	.	.
=26	=26	=26	=26	=26	=26	=26	=26
1G	1G	1g	1dd	4B-	2r	2.g	4dd]
.	.	.	.	4A	.	.	4cc
.	.	.	.	2G	2.g	.	4b-
.	.	.	.	.	.	4f	4a
1r	1r	1r	1r	2.c	.	4e	2g
.	.	.	.	.	4f	4d	.
.	.	.	.	.	4e	2c	[2cc
.	.	.	.	4B-	4d	.	.
=27	=27	=27	=27	=27	=27	=27	=27
0r	0r	0r	0r	4A	1c	2.cc	4cc]
.	.	.	.	4G	.	.	4b-
.	.	.	.	2.F	.	.	4a
.	.	.	.	.	.	4b-	4g
.	.	.	.	.	2.f	4a	2f
.	.	.	.	4E	.	4g	.
.	.	.	.	4D	.	[2f	[2ff
.	.	.	.	4C	4e	.	.
=28	=28	=28	=28	=28	=28	=28	=28
0r	0r	0r	0r	1.BB-	4d	2f]	4ff]
.	.	.	.	.	4c	.	4ee
.	.	.	.	.	2B-	2g	4dd
.	.	.	.	.	.	.	4cc
.	.	.	.	.	2d	2.f	2b-
.	.	.	.	2F	2c	.	[2a
.	.	.	.	.	.	4e	.
=29	=29	=29	=29	=29	=29	=29	=29
1r	0r	1r	1r	2G	2B-	2d	4a]
.	.	.	.	.	.	.	4g
.	.	.	.	2E	2G	2c	1g
2.d	.	2r	2r	1D	1A	[1d	.
.	.	[2d	[2dd	.	.	.	2f#
4c	.	.	.	.	.	.	.
=30	=30	=30	=30	=30	=30	=30	=30
4B-	2r	4d]	4dd]	2.G	[0G	1d]	1g
4A	.	4d	4cc	.	.	.	.
1G	2.g	2d	4b-	.	.	.	.
.	.	.	4a	4F	.	.	.
.	.	2.e	1g	4E	.	2.g	2r
.	4f	.	.	4D	.	.	.
[2c	4e	.	.	[2C	.	.	[2cc
.	4d	4f	.	.	.	4f	.
=31	=31	=31	=31	=31	=31	=31	=31
2c]	2c	2g	2.gg	2C]	1G]	2e	2cc]
2B	2G	2.g	.	2G	.	2d	2dd
.	.	.	4ff	.	.	.	.
1c	2.g	.	4ee	1C	2r	1c	2ee
.	.	4f	4dd	.	.	.	.
.	.	4e	[2cc	.	[2g	.	2gg
.	4f	4d	.	.	.	.	.
=32	=32	=32	=32	=32	=32	=32	=32
1C	4e	4c	2cc]	1c	4g]	0g	2.gg
.	4d	4d	.	.	4f	.	.
.	4c	4e	2cc	.	4e	.	.
.	4d	4f	.	.	4d	.	4ff
1c	1e	1g	1cc	1C	2c	.	4ee
.	.	.	.	.	.	.	4dd
.	.	.	.	.	[2G	.	2cc
=33	=33	=33	=33	=33	=33	=33	=33
[0G	[0d	[0g	[0b	[0G	4G]	[0g	[0dd
.	.	.	.	.	4A	.	.
.	.	.	.	.	4B	.	.
.	.	.	.	.	4c	.	.
.	.	.	.	.	2d	.	.
.	.	.	.	.	2B	.	.
=34	=34	=34	=34	=34	=34	=34	=34
0G]	0d]	0g]	0b]	0G]	0B	0g]	0dd]
==	==	==	==	==	==	==	==
*-	*-	*-	*-	*-	*-	*-	*-
!!!CDT: 1525/^1526/-1594/2/2
!!!OCY: Italia
!!!AGN: Mass (Parody)
!!!AST: renaissance, vocal
!!!ASW: Motet (Palestrina)
!!!PWK: Masses, Book 8vce
!!!RNB: Cadence finals: D
!!!YOR: Le Opere Complete, v. 30, p. 110
!!!YOO: Rome, Italy: Fratelli Scalera
!!!END: 1992//
!!!EED: John Miller
!!!YEC: Copyright 2000, John Miller
!!!YEN: United States of America
!!!YEM: Rights to all derivative electronic formats reserved.
!!!YEM: Refer to licensing agreement for further details.
!!!YEM: This file must be accompanied by the licensing agreement.
!!!YEM: A copy of the licensing agreement may be found at http://www.music-cog.ohio-state.edu/HumdrumDatabases/Palestrina/license.txt
!!!EMD: converted to Humdrum by Bret Aarden
